usr/share/icons/biglinux-icons-material/16/actions/document-metadata.svg

<svg width="16" height="16" version="1.1" xmlns="http://www.w3.org/2000/svg">
 <path d="m2.5 6a0.50005 0.50005 0 0 0-0.5 0.5v9 0.5h1v-0.5-8.5h6v3.5a0.50005 0.50005 0 0 0 0.5 0.5h3.5v4.5 0.5h1v-0.5-5a0.50005 0.50005 0 0 0-0.039062-0.19141 0.50005 0.50005 0 0 0-0.10742-0.16211l-4-4a0.50005 0.50005 0 0 0-0.15039-0.099609 0.50005 0.50005 0 0 0-0.037109-0.013672 0.50005 0.50005 0 0 0-0.13086-0.025391 0.50005 0.50005 0 0 0-0.035156-0.0078125h-7zm7.5 1.707 2.293 2.293h-2.293v-2.293z" color="#000000" fill="#363636" fill-rule="evenodd" stroke-linecap="square" stroke-linejoin="round" style="-inkscape-stroke:none"/>
 <path d="m2 0c-1.108 0-2 0.892-2 2v12c0 1.108 0.892 2 2 2h12c1.108 0 2-0.892 2-2v-12c0-1.108-0.892-2-2-2zm0 1h12c0.554 0 1 0.446 1 1v2h-14v-2c0-0.554 0.446-1 1-1zm-1 4h14v9c0 0.554-0.446 1-1 1h-12c-0.554 0-1-0.446-1-1z" fill="#363636" stroke-linecap="square" stroke-width="2"/>
</svg>

<svg xmlns="http://www.w3.org/2000/svg" width="16" height="16"><path fill="#dedede" fill-rule="evenodd" d="M2.5 6a.5.5 0 0 0-.5.5V16h1V7h6v3.5a.5.5 0 0 0 .5.5H13v5h1v-5.5a.5.5 0 0 0-.04-.191.5.5 0 0 0-.106-.163l-4-4a.5.5 0 0 0-.15-.1.5.5 0 0 0-.038-.013.5.5 0 0 0-.13-.025A.5.5 0 0 0 9.5 6h-7zM10 7.707 12.293 10H10V7.707z" color="#000" style="-inkscape-stroke:none"/><path fill="#dedede" d="M2 0C.892 0 0 .892 0 2v12c0 1.108.892 2 2 2h12c1.108 0 2-.892 2-2V2c0-1.108-.892-2-2-2zm0 1h12c.554 0 1 .446 1 1v2H1V2c0-.554.446-1 1-1zM1 5h14v9c0 .554-.446 1-1 1H2c-.554 0-1-.446-1-1z"/></svg>
